X:498
%%etbk:tnset id:251,pos:2,rep:3x,ant:
%%etbk:skill ?
%%etbk:pldat 2013-11-24T15:09,2013-09-27T15:13
T:Scotch Mary
H: Created 2013-09-27 / Last Modified 2013-09-27
R:reel
M:C
K:Ador
| "A"!3!c !1!Ec/B/E !3!cded | !3!c!1!~E3 !2!G2AB | !5!c~E3 !3!cded| "E"!3!c!1!A!1!GB"A"!1!A2AB|
"A"!3!c!1!~E3 !3!cded | !3!c!1!~E3 !2!G2!3!A!4!B | !3!^c!4!d!2!e!4!g !3!fded | "E"!3!c!1!A!2!B!1!G "A"!1!A2 !2!(3Bc!4!d||
| "A"!2!e!5!aag !2!ege!1!d| "E"!2!^c!1!def !4!g2fg | "A"!2!eaag !2!ege!1!d | "E"!3!cABG "A"A2 !2!(3Bc!4!d|
"A"!2!eaag !2!ege!1!d | "E"!2!^c!1!def !4!g2fg | !5!afge !3!fded | !3!cABG "A"A2AB|
| "A"!3!^cded !3!^cded | !3!c!1!~E3 G2AB | !3!^cded !3!^cded | "E"!3!cAGB"A"A2AB|
"A"!3!^cded !3!^cded| !3!c~E3 G2AB | !3!^c!4!d!2!e!4!g !3!fded | "E"!3!cABG "A"A2 (3Bcd||
